svg/device/instrument_line.svg

<?xml version="1.0" encoding="UTF-8"?>
<svg width="24px" height="24px" viewBox="0 0 24 24" version="1.1" xmlns="http://www.w3.org/2000/svg" xmlns:xlink="http://www.w3.org/1999/xlink">
    <title>instrument_line</title>
    <g id="Icon" stroke="none" stroke-width="1" fill="none" fill-rule="evenodd">
        <g id="Device" transform="translate(-576.000000, -384.000000)">
            <g id="instrument_line" transform="translate(576.000000, 384.000000)">
                <path d="M24,0 L24,24 L0,24 L0,0 L24,0 Z M12.5935,23.2578 L12.5819,23.2595 L12.5109,23.295 L12.4919,23.2987 L12.4767,23.295 L12.4057,23.2595 C12.3958,23.2564 12.387,23.259 12.3821,23.2649 L12.378,23.2758 L12.3609,23.7031 L12.3659,23.7235 L12.3769,23.7357 L12.4805,23.8097 L12.4953,23.8136 L12.5071,23.8097 L12.6107,23.7357 L12.6233,23.7197 L12.6267,23.7031 L12.6096,23.2758 C12.6076,23.2657 12.601,23.2593 12.5935,23.2578 Z M12.8584,23.1453 L12.8445,23.1473 L12.6598,23.2397 L12.6499,23.2499 L12.6472,23.2611 L12.6651,23.6906 L12.6699,23.7034 L12.6784,23.7105 L12.8793,23.8032 C12.8914,23.8069 12.9022,23.803 12.9078,23.7952 L12.9118,23.7812 L12.8777,23.1665 C12.8753,23.1546 12.8674,23.147 12.8584,23.1453 Z M12.143,23.1473 C12.1332,23.1424 12.1222,23.1453 12.1156,23.1526 L12.1099,23.1665 L12.0758,23.7812 C12.0751,23.7927 12.0828,23.8019 12.0926,23.8046 L12.1083,23.8032 L12.3092,23.7105 L12.3186,23.7024 L12.3225,23.6906 L12.3404,23.2611 L12.3372,23.2485 L12.3278,23.2397 L12.143,23.1473 Z" id="MingCute" fill-rule="nonzero"></path>
                <path d="M18,3 C19.6569,3 21,4.34315 21,6 L21,18 C21,19.6569 19.6569,21 18,21 L6,21 C4.34315,21 3,19.6569 3,18 L3,6 C3,4.34315 4.34315,3 6,3 L18,3 Z M18,5 L6,5 C5.44772,5 5,5.44772 5,6 L5,18 C5,18.5523 5.44772,19 6,19 L18,19 C18.5523,19 19,18.5523 19,18 L19,6 C19,5.44772 18.5523,5 18,5 Z M12,6 C14.0803,6 15.7164,6.44758 16.6277,6.77065 C17.5189941,7.08661235 17.9527657,7.96157595 17.8553152,8.79036993 L17.8308,8.94508 L17.109,12.5542 C16.9135,13.5318 15.8769,14.005 15.0302,13.6669 C14.3852462,13.4093615 13.3304462,13.0626112 12.2806144,13.0074855 L11.9803,13 L11.9803,13 C10.8473,13.0045 9.66824,13.388 8.96981,13.6669 C8.1654545,13.988095 7.1897323,13.5770917 6.92654558,12.6970186 L6.89104,12.5542 L6.16921,8.94508 C5.99482,8.07314 6.42527,7.10636 7.37228,6.77065 C8.28362,6.44758 9.91973,6 12,6 Z M12,8 C10.2814,8 8.92044,8.35451 8.14376,8.61978 L8.7431,11.6165 C9.42716,11.3765 10.3665,11.1114 11.3684,11.0272 L12.1056,9.55279 C12.3526,9.05881 12.9532,8.85858 13.4472,9.10557 C13.9412,9.35256 14.1414,9.95324 13.8944,10.4472 L13.542,11.152 C14.1928,11.2738 14.7855,11.4511 15.2569,11.6165 L15.8562,8.61978 C15.0796,8.35451 13.7186,8 12,8 Z" id="形状" fill="#09244B"></path>
            </g>
        </g>
    </g>
</svg>

<svg xmlns="http://www.w3.org/2000/svg" width="24" height="24"><g fill="none" fill-rule="evenodd"><path d="M24 0v24H0V0h24ZM12.594 23.258l-.012.002-.071.035-.02.004-.014-.004-.071-.036c-.01-.003-.019 0-.024.006l-.004.01-.017.428.005.02.01.013.104.074.015.004.012-.004.104-.074.012-.016.004-.017-.017-.427c-.002-.01-.009-.017-.016-.018Zm.264-.113-.014.002-.184.093-.01.01-.003.011.018.43.005.012.008.008.201.092c.012.004.023 0 .029-.008l.004-.014-.034-.614c-.003-.012-.01-.02-.02-.022Zm-.715.002a.023.023 0 0 0-.027.006l-.006.014-.034.614c0 .012.007.02.017.024l.015-.002.201-.093.01-.008.003-.011.018-.43-.003-.012-.01-.01-.184-.092Z"/><path fill="#09244B" d="M18 3a3 3 0 0 1 3 3v12a3 3 0 0 1-3 3H6a3 3 0 0 1-3-3V6a3 3 0 0 1 3-3h12Zm0 2H6a1 1 0 0 0-1 1v12a1 1 0 0 0 1 1h12a1 1 0 0 0 1-1V6a1 1 0 0 0-1-1Zm-6 1c2.08 0 3.716.448 4.628.77.891.317 1.325 1.192 1.227 2.02l-.024.155-.722 3.61c-.196.977-1.232 1.45-2.079 1.112-.645-.258-1.7-.604-2.75-.66l-.3-.007c-1.133.005-2.312.388-3.01.667-.805.321-1.78-.09-2.043-.97l-.036-.143-.722-3.609c-.174-.872.256-1.839 1.203-2.174C8.284 6.448 9.92 6 12 6Zm0 2c-1.719 0-3.08.355-3.856.62l.6 2.997c.683-.24 1.623-.506 2.624-.59l.738-1.474a1 1 0 1 1 1.788.894l-.352.705c.65.122 1.244.3 1.715.465l.6-2.997A12.082 12.082 0 0 0 12 8Z"/></g></svg>
